X: 1
T: Twa Sparkling Een
C: Nan Main
Z: T. Traub 7-30-03
R: jig
M: 6/8
L: 1/8
K: C
|: G |\
"C"C2E "(G)"G2B | "F"cBA "G"G2G | "C"C2E G2G | "Dm"FEF "G"D2D |\
"C"C2E "(G)"G2B | "F"cBA "G"G2G | "C"edc G2E | "G"DED "C"C2 :|
|: G |\
"C"E2G c2c | "G"dcd "C"e3 | "F"fef "G"def | "D"edc "G"BAG |\
"C"C2E "(G)"G2B | "F"cBA "Dm"d2c | "G"B2{A}G GAB | "C"c3 C2 :|
